!!!!SEGMENT: pl-kc--40102-iii-1-saf--001-019_zielenski-mikolaj--offertoria-totius-anni-in-festo-ss-apostolorum-philippi-et-iacobi-confitebuntur-caeli.krn
!!!cenid: 16xx:1497
!!!COM: Zieleński, Mikołaj
!!!COM-rismID: pe30013481
!!!CDT: <1611->1611
!!!CNT: Polish
!!!GTL: Offertoria totius anni
!!!OTL: In festo SS. Apostolorum Philippi et Iacobi/Confitebuntur caeli
!!!OMV: 019
!!!PDT: 1611
!!!AGN:
!!!SMS-siglum: PL-Kc
!!!SMS-shelfmark: 40102 III/1 Saf.
!!!SMS-shelfwork: 001-019 G
!!!SMS-variant:
!!!SMS-altvar:
!!!NIFC-rismSourceID: 990069886
!!!NIFC-rismChildID: 990069886
!!!NIFC-islandoraID: none
!!!URL-pdf-islandora:
!!!URL-scan: https://cyfrowe.mnk.pl/dlibra/publication/24235/edition/23926/content?ref=desc @EN{Scan on The National Museum in Krakow Website} @PL{Skany w portalu Biblioteka Cyfrowa Muzeum Narodowego w Krakowie}
!!!IIIF:
!!!ONB-nifc: UWAGA: str. 18-19. Uwaga: W xml metrum 2/1 do źródłowego C| i odpowiednio 3/1 do 3/2
!!!AIN: 4 organ
!!!key:
**kern	**kern	**kern	**kern
*group1	*group1	*group1	*group1
*part4	*part3	*part2	*part1
*staff4	*staff3	*staff2	*staff1
*I""Organo	*I""Organo	*I""Organo	*I""Organo
*I''org	*I''org	*I''org	*I''org
*Iorgan	*Iorgan	*Iorgan	*Iorgan
*ICklav	*ICklav	*ICklav	*ICklav
*clefF4	*clefC1	*clefC4	*clefG2
*k[]	*k[]	*k[]	*k[]
*d:	*d:	*d:	*d:
*M2/1	*M2/1	*M2/1	*M2/1
*met(c|)	*met(c|)	*met(c|)	*met(c|)
=1	=1	=1	=1
!	!	!LO:TX:a:t=Confitebuntur caeli.	!LO:TX:a:t=In feſto SS. Apoſtolorum Philippi, & Iacobi. A 8.
00r	00r	1d	1dd
.	.	2d\	2dd\
.	.	2d\	2dd\
=2-	=2-	=2-	=2-
.	.	4D/	1.ff
.	.	4E/	.
.	.	4F/	.
.	.	4G/	.
.	.	[y1A	.
.	.	.	4ee\
.	.	.	4dd\
=3	=3	=3	=3
!	!	!LO:N:vis=xstem:cue	!
00r	00r	2A\]	2ee\
.	.	2F/	2ff\
.	.	1B-X	2ff\
.	.	.	4ee\
.	.	.	4dd\
=4-	=4-	=4-	=4-
.	.	2A/	2cc#X\
.	.	2.d\	1dd
.	.	4d\	.
.	.	2c#X\	2ee\
*custos:D	*custos:a	*custos:f	*custos:ff
!!LO:LB:g=original
=5	=5	=5	=5
00r	00r	2d\	2.ff\
.	.	2D/	.
.	.	.	4ee\
.	.	2.G/	4dd\
.	.	.	4cc\
.	.	.	2dd\
.	.	4F/	.
=6-	=6-	=6-	=6-
.	.	2E/	2ee\
.	.	2E/	4gg\
.	.	.	4ff\
.	.	2.A/	4ee\
.	.	.	4dd\
.	.	.	4cc\
.	.	4G/	4b/
=7	=7	=7	=7
0r	0r	2F/	4cc\
.	.	.	4a/
.	.	4E/	1dd
.	.	4D/	.
.	.	1.A	.
.	.	.	4cc#X\
.	.	.	4b/
=8-	=8-	=8-	=8-
1r	1r	.	2cc#X\
.	.	2A/	2cc#\
1D	1a	1D	1dd
=9	=9	=9	=9
2D/	2a\	00r	00r
2D/	2a\	.	.
4AA/	1.cc	.	.
4BB/	.	.	.
4C/	.	.	.
4D/	.	.	.
=10-	=10-	=10-	=10-
1.E	.	.	.
.	4b\	.	.
.	4a\	.	.
.	2b\	.	.
2AA/	2cc\	.	.
=11	=11	=11	=11
1F	2cc\	00r	00r
.	4b\	.	.
.	4a\	.	.
2E\	2g#X/	.	.
2.A\	2.a\	.	.
=12-	=12-	=12-	=12-
.	.	.	.
4A\	4a\	.	.
2G\	2b\	.	.
2.F\	2cc\	.	.
.	[<2a\	.	.
4E\	.	.	.
=13	=13	=13	=13
2.D/	2a\]	00r	00r
.	1dd	.	.
4C/	.	.	.
2BB/	.	.	.
2AA/	2cc\	.	.
=14-	=14-	=14-	=14-
2GG#X/	2b\	.	.
2AA/	2a\	.	.
2.E\	2g/	.	.
.	[y2b\	.	.
4D/	.	.	.
=15	=15	=15	=15
!	!LO:N:xstem:cue	!	!
2C/	4b\]	0r	0r
.	4a\	.	.
4BB/	1a	.	.
4AA/	.	.	.
1.E	.	.	.
.	4g#X/	.	.
.	4f/	.	.
=16-	=16-	=16-	=16-
.	2g#X/	1r	1r
2E\	2g#/	.	.
1AA	1a	1A	1ee
=17	=17	=17	=17
1r	1r	2A/	2ee\
.	.	2A/	2ee\
1D	1a	1D	2.ff\
.	.	.	4ee\
=18-	=18-	=18-	=18-
2D/	2a\	1A	1dd
2D/	2a\	.	.
1GG	1b	2r	2r
.	.	2G/	2gg\
=19	=19	=19	=19
1.C	1.cc	2G/	2gg\
.	.	2C/	2gg\
.	.	2.F/	2.ff\
2FF/	2cc\	.	.
.	.	4G/	8ee\
.	.	.	8dd\
=20-	=20-	=20-	=20-
2FF/	2cc\	4A/	4cc\
.	.	4G/	4b/
2FF/	2cc\	4A/	4cc\
.	.	4F/	4dd\
2.C/	(1cc	2G/	4ee\
.	.	.	4ff\
.	.	4G/	[y2gg\
8BB/	.	4A/	.
8AA/	.	.	.
=21	=21	=21	=21
!	!	!	!LO:N:xstem:cue
4GG/	1b)	4B\	4gg\]
4AA/	.	4c\	8ff\
.	.	.	8ee\
4BB/	.	2d\	4dd\
4C/	.	.	4ee\
2D/	2a\	4A/	2ff\
.	.	4G/	.
2D/	1dd	4A/	2dd\
.	.	4B\	.
=22-	=22-	=22-	=22-
2.AA/	.	1c	1ee
.	2.cc\	.	.
4BB/	.	.	.
1C	.	2G/	2ee\
.	4dd\	.	.
.	2ee\	[y2G/	[y2gg\
=23	=23	=23	=23
!	!	!LO:N:xstem:cue	!LO:N:xstem:cue
2.GG/	2.dd\	4G/]	4gg\]
.	.	4G/	4gg\
.	.	2G/	2gg\
4GG/	4dd\	.	.
2GG/	2b\	2G/	2dd\
2.D/	2a\	2A/	2dd\
=24-	=24-	=24-	=24-
.	4a\	2D/	2ff\
4D/	2a\	.	.
4C#X/	.	2A/	2ee\
4C#/	4a\	.	.
2D/	2a\	2.A/	2.dd\
2D/	2a\	.	.
.	.	4A/	4dd\
=25	=25	=25	=25
1AA	2a\	2A/	2cc#X\
.	2.cc#X\	2.A/	2.ee\
2r	.	.	.
.	4cc#\	4A/	4ee\
2.AA/	2cc#\	2A/	2ee\
=26-	=26-	=26-	=26-
.	4ee\	2c\	2ccny\
4AA/	4dd\	.	.
2AA/	4ccny\	1C	2cc\
.	4b\	.	.
2FF/	2a\	.	2.ff\
2FF/	2cc\	[y2F/	.
.	.	.	4ee\
=27	=27	=27	=27
!	!	!LO:N:xstem:cue	!
2.BB-X/	1.dd	4F/]	2dd\
.	.	4E/	.
.	.	4D/	2.gg\
4AA/	.	4C/	.
2GG/	.	1E	.
.	.	.	4ff\
2.C/	1cc	.	4ee\
.	.	.	4dd\
=28-	=28-	=28-	=28-
.	.	1A	2cc\
4BBny/	.	.	.
4AA/	1cc	.	2ee\
4GG/	.	.	.
!	!	!LO:N:vis=2	!
2FF/	.	1r	2ff\
!	!	!	!LO:SIC:v:t=błędna wysokość custosa
2GG/	[<2b-X\	.	[y2ee\
*custos:AA	*custos:b	*custos:A	*custos:dd
!!LO:LB:g=original
=29	=29	=29	=29
!	!	!	!LO:N:xstem:cue
1.AA	2b-\]	1.A	4ee\]
.	.	.	4dd\
.	2a\	.	2.dd\
.	2.a\	.	.
.	.	.	8cc#X\
.	.	.	8b\
2AA/	.	2A/	2cc#\
.	4a\	.	.
=30-	=30-	=30-	=30-
1D	1a	2A/	2dd\
.	.	2D/	2ff\
1r	1r	2A/	2ee\
.	.	4D/	4ff\
.	.	[4G/	[<4dd\
=31	=31	=31	=31
1r	1r	4G/]	4dd\]
.	.	4C/	4ee\
.	.	2D/	2dd\
2r	2r	1A	1cc#X
2AA/	2a\	.	.
=32-	=32-	=32-	=32-
2D/	2a\	0r	0r
4GG/	4g/	.	.
2C/	2e/	.	.
4AA/	4a\	.	.
2E\	2g#X/	.	.
=33	=33	=33	=33
1AA	1a	2r	2r
.	.	2A/	2ee#X\
0r	0r	2d\	2ff\
.	.	4G/	4gg\
.	.	2c\	4.ee#\
=34-	=34-	=34-	=34-
.	.	.	.
.	.	.	8cc\
.	.	4F/	4ff\
.	.	2c\	2eeny\
2r	2r	1F	1ff
2FF/	2a\	.	.
=35	=35	=35	=35
2C/	2g/	1r	1r
4AA/	4a\	.	.
2BB-X/	4.f/	.	.
.	.	2r	2r
.	8d/	.	.
4GG/	4g/	.	.
2D/	2f#X/	4D/	4dd\
.	.	4D/	4dd\
=36-	=36-	=36-	=36-
1GG	1g	4.D/	4.gg\
.	.	8D/	8gg\
.	.	4D/	4gg\
.	.	4G/	4dd\
2r	2r	2C/	2ee\
4GG/	4g/	2G/	2dd\
4GG/	4g/	.	.
=37	=37	=37	=37
4.D/	4.f/	1r	1r
8D/	8f/	.	.
4D/	4f/	.	.
4AA/	4a\	.	.
2E\	2g/	4E/	4b/
.	.	4E/	4b/
2AA/	2a\	4.E/	4.ee\
.	.	8E/	8ee\
=38-	=38-	=38-	=38-
1r	1r	4A/	4ee\
.	.	4D/	4ff\
.	.	2A/	2ee\
2r	2r	1D	1dd
2D/	2a\	.	.
=39	=39	=39	=39
2G\	2b\	0r	0r
4C/	4cc\	.	.
2F\	2a\	.	.
4D/	4a\	.	.
2GG/	2g/	.	.
=40-	=40-	=40-	=40-
1D	1f	2r	2r
.	.	2D/	2dd\
1r	1r	2A/	2ee\
.	.	4D/	4ff\
.	.	[<4d\	[<4dd\
=41	=41	=41	=41
1r	1r	4d\]	4dd\]
.	.	4d\	4dd\
.	.	2B-X\	2dd\
2r	2r	2A/	2cc#X\
2AA/	2cc\	2A/	2ee\
=42-	=42-	=42-	=42-
2E\	2b\	2E/	2ee\
4AA/	4cc\	4E/	4ee\
2D/	2a\	2F/	2dd\
4D/	4a\	4D/	4dd\
2AA/	2a\	2E/	2cc#X\
=43	=43	=43	=43
1D	1a	2F#X/	2dd\
.	.	4D/	4ff\
.	.	4D/	4ff\
1r	1r	4.G/	4.dd\
.	.	8G/	8dd\
.	.	4E/	4ee\
.	.	4C/	4ee\
=44-	=44-	=44-	=44-
4GG/	4g/	2G/	2dd\
4GG/	4g/	.	.
4.C/	4.g/	2C/	2cc\
8C/	8g/	.	.
4C/	4g/	2r	2r
4AA/	4a\	.	.
2D/	2f#X/	4D/	4dd\
.	.	4D/	4dd\
=45	=45	=45	=45
2GG/	2g/	4.D/	4.gg\
.	.	8G/	8gg\
2r	2r	4c\	4gg\
.	.	4C/	4ee\
4GG/	4g/	2G/	2dd\
4GG/	4g/	.	.
4.C/	4.g/	2C/	2cc\
8C/	8g/	.	.
=46-	=46-	=46-	=46-
4AA/	4cc\	2r	2r
4GG/	4b\	.	.
2D/	2a\	4D/	4dd\
.	.	4D/	4dd\
2GG/	2g/	4.D/	4.gg\
.	.	8G/	8gg\
2r	2r	4c\	4gg\
.	.	4C/	4ee\
=47	=47	=47	=47
4FF/	4cc\	2F/	2ff\
4FF/	4cc\	.	.
4.C/	4.g/	2C/	2ee\
8C/	8g/	.	.
2AA/	2a\	2r	2r
4E\	4b\	4E/	4ee\
4E\	4b\	4E/	4ee\
=48-	=48-	=48-	=48-
4.AA/	4.cc#X\	4.E/	4.ee\
8AA/	8cc#\	8E/	8ee\
2D/	2dd\	2D/	2ff#X\
4GG/	4dd\	4D/	4gg\
4GG/	4dd\	4D/	4gg\
4.C/	4.ccny\	4.E/	4.ee\
8C/	8cc\	8E/	8ee\
*custos:FF	*custos:cc	*custos:C	*custos:ff
!!LO:PB:g=original
=49	=49	=49	=49
4FF/	4cc\	4C/	4ff\
2FF/	2cc\	2C/	2ff\
4FF/	4cc\	4C/	4cc\
2.C/	2cc\	2.C/	2.ee\
.	2cc\	.	.
4C/	.	4c\	4ee\
=50-	=50-	=50-	=50-
2GG/	2dd\	2B-X\	2dd\
2GG/	2dd\	2G/	2gg\
1D	1cc	4D/	1ff
.	.	4E/	.
.	.	4F/	.
.	.	4G/	.
=51	=51	=51	=51
2.AA/	2cc\	4A/	2ee\
.	.	4B\	.
.	2cc\	2c\	2.aa\
4GG/	.	.	.
2FF/	0cc	2c\	.
.	.	.	4gg\
2FF/	.	2C/	2.ff\
=52-	=52-	=52-	=52-
1C	.	1C	.
.	.	.	8ee\
.	.	.	8dd\
.	.	.	2ee\
1FF	1cc	1C	1ff
=53	=53	=53	=53
*M3/2	*M3/2	*M3/2	*M3/2
00.r	00.r	1F	1ff
.	.	1c	1ee
.	.	1G	1dd
=54-	=54-	=54-	=54-
.	.	0.A	1.cc#X
.	.	.	2dd\
.	.	.	1ee
=55-	=55-	=55-	=55-
00.r	00.r	1F#X	1a
.	.	1G	1b
.	.	1E	1cc#X
=56-	=56-	=56-	=56-
.	.	0.D	0.dd
=57	=57	=57	=57
1D	1dd	00.r	00.r
1AA	1cc	.	.
1E	1b	.	.
=58-	=58-	=58-	=58-
1.AA	1.a	.	.
2BB/	2g/	.	.
1C	2e/	.	.
.	2f#X/	.	.
=59-	=59-	=59-	=59-
1GG	2g/	00.r	00.r
.	2a\	.	.
1GG	1b	.	.
1D	1a	.	.
=60-	=60-	=60-	=60-
0.GG	0.g	.	.
=61	=61	=61	=61
00.r	00.r	1G	1dd
.	.	1E	1ee
.	.	1D	1ff#X
=62-	=62-	=62-	=62-
*	*	*col	*
.	.	0C	2gg\
.	.	.	2ffny\
.	.	.	2ee\
.	.	.	2dd\
.	.	1F	2cc\
.	.	.	2a/
=63-	=63-	=63-	=63-
00.r	00.r	1D	0dd
.	.	0A	.
*	*	*Xcol	*
.	.	.	1cc#X
=64-	=64-	=64-	=64-
.	.	0.D	0.dd
=65	=65	=65	=65
1D	1a	00.r	00.r
1BB	1b	.	.
1AA	1cc	.	.
=66-	=66-	=66-	=66-
1GG	1.dd	.	.
1.G	.	.	.
.	2cc\	.	.
.	2b\	.	.
2F\	2a\	.	.
=67-	=67-	=67-	=67-
2E\	1g	00.r	00.r
2D\	.	.	.
1C	1a	.	.
1BB	1b	.	.
=68-	=68-	=68-	=68-
2AA/	1.cc	.	.
2BB/	.	.	.
2C/	.	.	.
2D/	2b\	.	.
2E\	2g/	.	.
2F\	2a\	.	.
=69	=69	=69	=69
1G	1b	00.r	00.r
1A	1a	.	.
1F	1a	.	.
=70-	=70-	=70-	=70-
1.E	1g#X	.	.
.	0b	.	.
2D/	.	.	.
1C	.	.	.
=71-	=71-	=71-	=71-
1AA	0a	00.r	00.r
0E	.	.	.
.	1gny	.	.
=72-	=72-	=72-	=72-
0.AA	0.a	.	.
=73	=73	=73	=73
1AA	1cc#X	1A	1ee
1D	1dd	1A	1ff#X
1GG	1dd	1G	1gg
=74-	=74-	=74-	=74-
1.C	1.ee	0G	0.ee
2BB/	2dd\	.	.
2AA/	2ccny\	1C	.
2GG/	2b\	.	.
=75-	=75-	=75-	=75-
1FF	1a	1F	1ffny
1C	1cc	1G	1ee
1D	1a	1D	1dd
=76-	=76-	=76-	=76-
0.AA	1.a	0.E	1.cc
.	2b#X\	.	2dd\
.	2cc\	.	1ee
.	2dd\	.	.
=77	=77	=77	=77
1C#X	1ee	1E	1a
1D	1a	1F	1a
1BB	1g#X	1D	1dd
=78-	=78-	=78-	=78-
*	*col	*col	*
1.AA	0a	0E	1cc#X
.	.	.	0ee
2BB/	.	.	.
1C#X	1a	1E	.
=79-	=79-	=79-	=79-
*col	*	*	*
1D	1a	1F	0dd
0AA	0a	0E	.
*Xcol	*Xcol	*Xcol	*
.	.	.	1cc#X
=80-	=80-	=80-	=80-
0.FF	0.a	0.D	0.dd
*custos:GG	*custos:b	*custos:D	*custos:dd
!!LO:LB:g=original
=81	=81	=81	=81
*M2/1	*M2/1	*M2/1	*M2/1
*met(c|)	*met(c|)	*met(c|)	*met(c|)
2r	2r	2r	2r
1GG	1b-X	1D	1dd
2D/	2a\	2D/	2dd\
=82-	=82-	=82-	=82-
0GG	2.b-X\	0D	0dd
.	4cc\	.	.
.	1dd	.	.
=83-	=83-	=83-	=83-
0DDl	0ddl	0Dl	0ddl
==	==	==	==
*-	*-	*-	*-
!!!system-decoration: *
!!!RDF**kern: > = above
!!!RDF**kern: < = below
!!!RDF**kern: l = terminal long
!!!ENC: Filip Voros
!!!END: 2021-12-11
!!!ENC: Marta Lawrence
!!!END: 2021-12-19
!!!YEC: Copyright 2022 Narodowy Instytut Fryderyka Chopina (https://polishscores.org)
!!!YEM: License CC-BY-4.0 (https://creativecommons.org/licenses/by/4.0)
